X: 6891
T: Chasing The Sunset
R: reel
M: 4/4
K: Amajor
|:A3 B cBcd|eA A/A/A dcBc|A2 eA fAeA|fAec dcBc
AGAB cBcd|eA A/A/A dcBc|A3 c BAFE|F3 F2 EFG:|
|:A3 B cBce|fefg agfe|faea faec|BABc dcBc
AGAB cBce|fefg agfe|fefg agfe|faec B2 cB:|

